theme-base/src/main/assets/themes/mapsforgeV3/base/symbols/db_poi_theatre.svg

<svg enable-background="new 0 0 48 48" height="48" viewBox="0 0 48 48" width="48" xmlns="http://www.w3.org/2000/svg"><path clip-rule="evenodd" d="m24.122 43.365c-.028-.015-9.818-4.912.293-25.123.675-1.349 10.084 2.528 10.797 2.885.715.357 9.397 5.574 8.754 6.86-10.126 20.24-19.816 15.393-19.844 15.378zm3.408-16.717c-1.61-.821-3.354-.347-3.452-.149-.108.217.76 1.957 2.19 2.673 1.398.699 3.375.471 3.519.183.131-.262-.729-1.926-2.257-2.707zm-3.958 5.574s-.162 5.688 2.563 7.05c2.625 1.313 7.205-2.163 7.205-2.163s-3.318.788-5.877-.492c-2.592-1.298-3.891-4.395-3.891-4.395zm11.768-1.666c-1.609-.821-3.354-.347-3.452-.149-.108.217.76 1.957 2.19 2.672 1.398.7 3.375.472 3.519.184.132-.263-.73-1.927-2.257-2.707zm-12.166-13.901c-.687 1.373-1.294 2.685-1.832 3.939-.93-.31-1.936-.439-2.88-.141-2.799.884-4.007 5.496-4.007 5.496s1.978-2.42 4.707-3.282c.486-.154.978-.252 1.458-.313-1.037 2.642-1.744 5.01-2.193 7.13-3.588-.565-9.824-3.804-14.41-18.327-.454-1.438 9-5.202 9.76-5.442.762-.241 10.627-2.539 11.061-1.166 1.593 5.044 2.248 9.087 2.318 12.323-2.032-.557-3.692-.797-3.982-.217zm-7.781-1.769c-.135-.26-1.988-.539-3.515.241-1.61.822-2.248 2.514-2.146 2.708.112.215 2.031.532 3.449-.207 1.387-.722 2.361-2.457 2.212-2.742zm8.661-1.573c-.038-.291-1.684-1.186-3.385-.975-1.794.222-2.972 1.593-2.943 1.811.032.24 1.726 1.194 3.312.985 1.55-.204 3.059-1.502 3.016-1.821z" fill-rule="evenodd"/></svg>

<?xml version="1.0" encoding="utf-8"?>
<!-- Generator: Adobe Illustrator 15.0.2, SVG Export Plug-In . SVG Version: 6.00 Build 0)  -->
<!DOCTYPE svg PUBLIC "-//W3C//DTD SVG 1.1//EN" "http://www.w3.org/Graphics/SVG/1.1/DTD/svg11.dtd">
<svg version="1.1" xmlns="http://www.w3.org/2000/svg" xmlns:xlink="http://www.w3.org/1999/xlink" x="0px" y="0px" width="48px"
	 height="48px" viewBox="0 0 48 48" enable-background="new 0 0 48 48" xml:space="preserve">
<g id="Vrstva_3">
	<path fill-rule="evenodd" clip-rule="evenodd" d="M24.122,43.365c-0.028-0.015-9.818-4.912,0.293-25.123
		c0.675-1.349,10.084,2.528,10.797,2.885c0.715,0.357,9.397,5.574,8.754,6.86C33.84,48.227,24.15,43.38,24.122,43.365z
		 M27.53,26.648c-1.61-0.821-3.354-0.347-3.452-0.149c-0.108,0.217,0.76,1.957,2.19,2.673c1.398,0.699,3.375,0.471,3.519,0.183
		C29.918,29.093,29.058,27.429,27.53,26.648z M23.572,32.222c0,0-0.162,5.688,2.563,7.05c2.625,1.313,7.205-2.163,7.205-2.163
		s-3.318,0.788-5.877-0.492C24.871,35.319,23.572,32.222,23.572,32.222z M35.34,30.556c-1.609-0.821-3.354-0.347-3.452-0.149
		c-0.108,0.217,0.76,1.957,2.19,2.672c1.398,0.7,3.375,0.472,3.519,0.184C37.729,33,36.867,31.336,35.34,30.556z M23.174,16.655
		c-0.687,1.373-1.294,2.685-1.832,3.939c-0.93-0.31-1.936-0.439-2.88-0.141c-2.799,0.884-4.007,5.496-4.007,5.496
		s1.978-2.42,4.707-3.282c0.486-0.154,0.978-0.252,1.458-0.313c-1.037,2.642-1.744,5.01-2.193,7.13
		c-3.588-0.565-9.824-3.804-14.41-18.327c-0.454-1.438,9-5.202,9.76-5.442c0.762-0.241,10.627-2.539,11.061-1.166
		c1.593,5.044,2.248,9.087,2.318,12.323C25.124,16.315,23.464,16.075,23.174,16.655z M15.393,14.886
		c-0.135-0.26-1.988-0.539-3.515,0.241c-1.61,0.822-2.248,2.514-2.146,2.708c0.112,0.215,2.031,0.532,3.449-0.207
		C14.568,16.906,15.542,15.171,15.393,14.886z M24.054,13.313c-0.038-0.291-1.684-1.186-3.385-0.975
		c-1.794,0.222-2.972,1.593-2.943,1.811c0.032,0.24,1.726,1.194,3.312,0.985C22.588,14.93,24.097,13.632,24.054,13.313z"/>
</g>
<g id="Vrstva_4">
</g>
<g id="Vrstva_2">
</g>
</svg>
